X:63
T:The Pinch of Snuff
M:4/4
L:1/8
R:reel
N:Learned from Sheet Music and Kira Ott
Z:Michael Abraham Shulman
K:D
|:F2DF EFDE|F2DF EFGE|F2DF EFDF|G2BG EFGE:|
|:DFAF B2AF|DFAF EFGE|DFAF B2AF|1 G2BG EFGE:|2 G2BG EFGA|
K:G
|:B2GB ABGA|B2GB ABcA|B2GB ABGB|c2ec ABcA:|
|:GBdB e2dB|GBdB ABcA|GBdB e2dB|c2ec ABcA:|
K:A
|:c2Ac BcAB|c2Ac BcdB|c2Ac BcAc|d2fd BcdB:|
|:Acec f2ec|Acec BcdB|Acec f2ec|1 d2fd BcdB:|2 d2fd Bcde|
K:D
|:f2df efde|f2df efge|f2df efdf|g2bg efge:|
|:dfaf b2af|dfaf efge|dfaf b2af|g2bg efge:|
|:fgfe dcdB|AFFF AFA=c|BGBd =cBcG|E2E2 E2EG:|
%%text The last measure of the bridge actually does something else below low D, but I don't play it.
